X:1
T:Trusting in Thee
T:George Coles Stebbins
T:Trusting in Thee
T:Public Domain
T:Public Domain
C:George Coles Stebbins
Z:Public Domain
%%score ( 1 2 ) ( 3 4 )
L:1/8
M:4/4
K:Ab
V:1 treble 
V:2 treble 
V:3 bass 
V:4 bass 
V:1
 [CE]2 [=B,=D]>[_DF] [CE]2 [EA][E=B] | [Ec]2 [Fd]>[FA] [Ec]4 | [Ec]2 [DB]>[DE] [DB]4 | %3
w: 1.~Je- sus, my shep- herd and|Sav- ior di- vine,|Trust- ing in Thee,|
w: 2.~What tho’ a- round me the|bil- lows may roll?|Trust- ing in Thee,|
w: 3.~What if the sha- dows en-|com- pass my way?|Trust- ing in Thee,|
w: 4.~Je- sus, my shep- herd, Re-|deem- er and friend,|Trust- ing in Thee,|
 [CB]2 [CA]>C [CE]4 | [CE]2 [=B,=D]>[_DF] [CE]2 [EA][E=B] | [Ec]2 [Fd]>[FA] [Ec]4 | %6
w: trust- ing in Thee;|what a fore- taste of glo-|ry is mine While|
w: trust- ing in Thee;|on the rock I have an-|chored my soul; Lord,|
w: trust- ing in Thee;|Thou hast prom- ised Thy strength|as my day, While|
w: trust- ing in Thee;|wilt de- liv- er and Thou|wilt de- fend, While|
 [Ae]2 [Ec][CA] [DB]2 [DE][DB] | [CA]6 z2 ||"^Refrain" [FA]4 [Fd]4 | [Fd]4 [Ec]4 | %10
w: I am trust- ing in Thee!|Trust-|ing, trust-|ing, Je-|
w: I am trust- ing in Thee!||||
w: I am trust- ing in Thee.||||
w: I am trust- ing in Thee.||||
 [Ec]2 [EB]>[EB] [=DB]2 [Ec][A=d] | G2 A2 B2 z2 | [CE]2 [=B,=D]>[_DF] [CE]2 [EA][E=B] | %13
w: sus my Sav- ior, in Thee|(in Thee); O|a fore- taste of glo- ry|
w: |||
w: |||
w: |||
 [Ec]2 [Fd]>[FA] [Ec]4 | [Ae]2 [Ec][CA] [DB]2 [DE][EB] | [CA]6 z2 |] %16
w: is mine, While I|am trust- ing in Thee! *||
w: |||
w: |||
w: |||
V:2
 x8 | x8 | x8 | x7/2 C/ x4 | x8 | x8 | x8 | x8 || x8 | x8 | x8 | e6 x2 | x8 | x8 | x8 | x8 |] %16
w: |||O||||||||what|||||
w: |||Firm|||||||||||||
w: |||Lord,|||||||||||||
w: |||Thou|||||||||||||
V:3
 [A,,A,]2 [A,,A,]>[A,,A,] [A,,A,]2 [C,A,][E,G,] | A,2 A,>A, A,4 | [E,G,]2 [E,G,]>[E,G,] [E,G,]4 | %3
w: ~ ~ ~ ~ ~ ~|~ ~ ~ ~|~ ~ ~ ~|
 [A,,A,]2 [A,,E,]>[A,,E,] [A,,A,]4 | [A,,A,]2 [A,,A,]>[A,,A,] [A,,A,]2 [C,A,][E,G,] | %5
w: ~ ~ ~ ~|~ ~ ~ ~ ~ ~|
 A,2 A,>A, A,4 | [E,C]2 [E,A,][E,A,] [E,G,]2 [E,G,][E,G,] | [A,,A,]6 z2 || %8
w: ~ ~ ~ ~|ing, trust- ing, I am trust-|ing|
 [D,A,]2 [D,D]2 [D,A,]2 [D,A,]2 | [A,,A,]2 [A,,A,]2 [A,,A,]2 [A,,A,]2 | %10
w: ||
 [E,A,]2 [E,G,]>[E,G,] [B,,F,]2 [B,,A,][B,,B,] | B,2 C2 D2 z2 | %12
w: ||
 [A,,A,]2 [A,,A,]>[A,,A,] [A,,A,]2 [C,A,][E,G,] | A,2 A,>A, A,4 | %14
w: ||
 [E,C]2 [E,A,][E,A,] [E,G,]2 [E,G,][E,G,] | [A,,A,]6 z2 |] %16
w: ||
V:4
 x8 | A,2 A,>A, A,4 | x8 | x8 | x8 | A,2 A,>A, A,4 | x8 | x8 || x8 | x8 | x8 | E,6 x2 | x8 | %13
w: |~ ~ ~ ~||||~ ~ ~ Trust-||||||||
 A,2 A,>A, A,4 | x8 | x8 |] %16
w: |||

